src/gui/emoticons/middlefinger.svg

<svg xmlns="http://www.w3.org/2000/svg" xmlns:xlink="http://www.w3.org/1999/xlink" width="16pt" height="16pt" version="1.1" viewBox="0 0 16 16"><defs><radialGradient id="radial0" cx="927.09" cy="26.957" r="74.733" fx="927.09" fy="26.957" gradientTransform="matrix(-0.130275,0,0,0.125,128.225,0)" gradientUnits="userSpaceOnUse"><stop offset=".6" style="stop-color:#f9ddbd;stop-opacity:1"/><stop offset="1" style="stop-color:#edc391;stop-opacity:1"/></radialGradient><clipPath id="clip1"><path d="M 4 8 L 6 8 L 6 11 L 4 11 Z M 4 8"/></clipPath><clipPath id="clip2"><path d="M 4.042969 8.984375 L 4.074219 8.980469 L 4.046875 7.875 C 4.046875 7.269531 4.234375 6.574219 5.085938 6.421875 C 5.523438 6.34375 6.015625 6.535156 6.160156 6.535156 C 6.304688 6.535156 6.316406 6.410156 6.316406 6.410156 L 6.328125 1.660156 C 6.328125 1.082031 6.6875 0.535156 7.371094 0.535156 C 8.058594 0.535156 8.445312 1 8.445312 1.660156 L 8.550781 6.296875 C 8.550781 6.296875 8.589844 6.492188 8.621094 6.503906 C 8.804688 6.558594 9.039062 6.332031 9.707031 6.457031 C 10.375 6.582031 10.578125 7.128906 10.800781 7.171875 C 11.023438 7.21875 11.179688 7.085938 11.808594 7.085938 C 12.441406 7.085938 12.996094 7.578125 12.996094 8.183594 L 12.953125 11.902344 C 12.953125 12.417969 12.519531 12.933594 12.421875 13.046875 C 12.066406 13.441406 11.875 13.945312 11.875 14.464844 L 11.875 14.714844 C 11.875 15.304688 11.351562 15.53125 10.734375 15.535156 L 6.386719 15.554688 C 5.804688 15.558594 5.332031 15.191406 5.332031 14.546875 C 5.332031 13.902344 5.269531 13.320312 4.753906 13.066406 C 4.234375 12.808594 3.203125 11.566406 3.105469 10.316406 C 3.035156 9.453125 3.382812 9.058594 4.042969 8.984375 Z M 4.042969 8.984375"/></clipPath></defs><g id="surface1"><path style="stroke:none;fill-rule:nonzero;fill:url(#radial0)" d="M 6.371094 15.371094 C 5.976562 15.371094 5.515625 15.15625 5.515625 14.546875 C 5.515625 13.914062 5.460938 13.207031 4.832031 12.898438 C 4.402344 12.6875 3.277344 11.25 3.195312 10.050781 C 3.144531 9.335938 3.433594 9.234375 3.957031 9.046875 C 4.007812 9.027344 4.0625 9.007812 4.117188 8.988281 C 4.25 8.9375 4.25 8.9375 4.234375 7.871094 C 4.234375 7.128906 4.523438 6.710938 5.121094 6.605469 C 5.179688 6.597656 5.242188 6.589844 5.3125 6.589844 C 5.523438 6.589844 5.746094 6.640625 5.90625 6.679688 C 6.015625 6.703125 6.097656 6.722656 6.160156 6.722656 C 6.390625 6.722656 6.492188 6.546875 6.503906 6.433594 C 6.507812 6.425781 6.507812 6.417969 6.507812 6.410156 L 6.515625 1.660156 C 6.515625 1.207031 6.785156 0.722656 7.375 0.722656 C 7.929688 0.722656 8.261719 1.070312 8.261719 1.660156 L 8.363281 6.300781 C 8.363281 6.3125 8.367188 6.324219 8.367188 6.335938 C 8.410156 6.535156 8.453125 6.648438 8.570312 6.683594 C 8.609375 6.695312 8.644531 6.703125 8.6875 6.703125 C 8.761719 6.703125 8.832031 6.683594 8.910156 6.664062 C 9.015625 6.640625 9.144531 6.609375 9.324219 6.609375 C 9.429688 6.609375 9.546875 6.621094 9.671875 6.644531 C 10.039062 6.710938 10.242188 6.925781 10.40625 7.101562 C 10.523438 7.222656 10.625 7.332031 10.765625 7.359375 C 10.808594 7.367188 10.851562 7.371094 10.894531 7.371094 C 10.980469 7.371094 11.0625 7.355469 11.15625 7.339844 C 11.304688 7.308594 11.488281 7.273438 11.8125 7.273438 C 12.355469 7.273438 12.8125 7.691406 12.8125 8.183594 L 12.769531 11.902344 C 12.769531 12.316406 12.402344 12.753906 12.25 12.921875 C 11.871094 13.351562 11.628906 13.898438 11.628906 14.464844 L 11.628906 14.71875 C 11.628906 15.234375 11.128906 15.347656 10.703125 15.347656 Z M 6.371094 15.371094"/><path style="stroke:none;fill-rule:nonzero;fill:#e6b77e;fill-opacity:1" d="M 7.375 0.875 L 7.398438 0.875 C 8.007812 0.875 8.125 1.378906 8.125 1.660156 L 8.125 1.667969 L 8.203125 6.308594 C 8.203125 6.328125 8.191406 6.351562 8.195312 6.375 C 8.226562 6.53125 8.273438 6.789062 8.519531 6.863281 C 8.578125 6.878906 8.628906 6.890625 8.691406 6.890625 C 8.785156 6.890625 8.871094 6.867188 8.957031 6.847656 C 9.058594 6.824219 9.167969 6.796875 9.324219 6.796875 C 9.421875 6.796875 9.527344 6.804688 9.640625 6.828125 C 9.945312 6.882812 10.109375 7.058594 10.269531 7.230469 C 10.394531 7.363281 10.527344 7.503906 10.726562 7.542969 C 10.78125 7.554688 10.835938 7.558594 10.894531 7.558594 C 10.996094 7.558594 11.089844 7.542969 11.1875 7.523438 C 11.328125 7.496094 11.503906 7.464844 11.8125 7.464844 C 12.242188 7.464844 12.621094 7.800781 12.621094 8.183594 L 12.578125 11.90625 C 12.578125 12.144531 12.421875 12.480469 12.140625 12.796875 C 11.730469 13.261719 11.5 13.851562 11.5 14.460938 L 11.5 14.714844 C 11.5 14.828125 11.472656 15.160156 10.734375 15.160156 L 6.382812 15.183594 C 6.058594 15.183594 5.707031 15.015625 5.707031 14.546875 C 5.707031 14.046875 5.707031 13.117188 4.921875 12.730469 C 4.527344 12.539062 3.464844 11.15625 3.386719 10.035156 C 3.347656 9.464844 3.503906 9.410156 4.023438 9.222656 C 4.074219 9.203125 4.128906 9.183594 4.183594 9.164062 C 4.433594 9.070312 4.429688 8.855469 4.429688 8.664062 C 4.429688 8.574219 4.429688 8.457031 4.429688 8.335938 C 4.425781 8.105469 4.421875 7.875 4.421875 7.875 C 4.421875 7.019531 4.839844 6.847656 5.15625 6.789062 C 5.203125 6.78125 5.257812 6.777344 5.3125 6.777344 C 5.507812 6.777344 5.714844 6.824219 5.863281 6.859375 C 5.988281 6.890625 6.078125 6.910156 6.164062 6.910156 C 6.476562 6.910156 6.667969 6.679688 6.691406 6.453125 C 6.695312 6.441406 6.695312 6.425781 6.695312 6.410156 L 6.703125 1.644531 C 6.703125 1.363281 6.84375 0.875 7.375 0.875 M 7.371094 0.535156 C 6.6875 0.535156 6.328125 1.085938 6.328125 1.664062 L 6.316406 6.414062 C 6.316406 6.414062 6.304688 6.535156 6.160156 6.535156 C 6.042969 6.535156 5.679688 6.402344 5.3125 6.402344 C 5.234375 6.402344 5.160156 6.410156 5.085938 6.421875 C 4.234375 6.574219 4.046875 7.269531 4.046875 7.875 C 4.046875 7.875 4.0625 8.808594 4.050781 8.8125 C 3.453125 9.039062 2.945312 9.125 3.011719 10.0625 C 3.097656 11.3125 4.234375 12.8125 4.753906 13.070312 C 5.269531 13.324219 5.328125 13.875 5.328125 14.519531 C 5.328125 15.164062 5.796875 15.5 6.375 15.5 L 6.378906 15.5 L 10.734375 15.507812 C 11.351562 15.507812 11.875 15.308594 11.875 14.71875 L 11.875 14.46875 C 11.875 13.949219 12.070312 13.445312 12.421875 13.046875 C 12.519531 12.9375 12.960938 12.421875 12.960938 11.90625 L 13 8.1875 C 13 7.578125 12.445312 7.089844 11.8125 7.089844 C 11.273438 7.089844 11.078125 7.183594 10.894531 7.183594 C 10.863281 7.183594 10.832031 7.183594 10.800781 7.175781 C 10.578125 7.132812 10.375 6.582031 9.707031 6.460938 C 9.558594 6.433594 9.433594 6.421875 9.324219 6.421875 C 8.992188 6.421875 8.820312 6.515625 8.6875 6.515625 C 8.664062 6.515625 8.644531 6.511719 8.625 6.507812 C 8.59375 6.496094 8.550781 6.300781 8.550781 6.300781 L 8.449219 1.660156 C 8.445312 1.003906 8.058594 0.535156 7.371094 0.535156 Z M 7.371094 0.535156"/><g clip-path="url(#clip1)" clip-rule="nonzero"><g clip-path="url(#clip2)" clip-rule="nonzero"><path style="stroke:none;fill-rule:nonzero;fill:#e6b77e;fill-opacity:1" d="M 5.058594 10.566406 C 4.898438 10.675781 4.292969 10.304688 4.109375 9.683594 C 3.894531 8.964844 4.089844 8.277344 4.089844 8.277344 C 4.089844 8.277344 4.449219 9.046875 4.601562 9.339844 C 4.945312 9.984375 5.210938 10.460938 5.058594 10.566406 Z M 5.058594 10.566406"/></g></g></g></svg>

<svg xmlns="http://www.w3.org/2000/svg" width="16pt" height="16pt" viewBox="0 0 16 16"><defs><clipPath id="b"><path d="M4 8h2v3H4Zm0 0"/></clipPath><clipPath id="c"><path d="m4.043 8.984.031-.004-.027-1.105c0-.605.187-1.3 1.039-1.453.437-.078.93.113 1.074.113s.156-.125.156-.125l.012-4.75c0-.578.36-1.125 1.043-1.125.688 0 1.074.465 1.074 1.125l.106 4.637s.039.195.07.207c.184.055.418-.172 1.086-.047s.871.672 1.094.715c.222.047.379-.086 1.008-.086.632 0 1.187.492 1.187 1.098l-.043 3.718c0 .516-.433 1.032-.531 1.145a2.12 2.12 0 0 0-.547 1.418v.25c0 .59-.523.816-1.14.82l-4.348.02c-.582.004-1.055-.364-1.055-1.008 0-.645-.062-1.227-.578-1.48-.52-.258-1.55-1.5-1.649-2.75-.07-.864.278-1.258.938-1.333m0 0"/></clipPath><radialGradient id="a" cx="927.09" cy="26.957" r="74.733" fx="927.09" fy="26.957" gradientTransform="matrix(-.13028 0 0 .125 128.225 0)" gradientUnits="userSpaceOnUse"><stop offset=".6" style="stop-color:#f9ddbd;stop-opacity:1"/><stop offset="1" style="stop-color:#edc391;stop-opacity:1"/></radialGradient></defs><path d="M6.371 15.371c-.394 0-.855-.215-.855-.824 0-.633-.055-1.34-.684-1.649-.43-.21-1.555-1.648-1.637-2.847-.05-.715.239-.817.762-1.004.05-.02.106-.04.16-.059.133-.05.133-.05.117-1.117 0-.742.29-1.16.887-1.266.059-.007.121-.015.191-.015.211 0 .434.05.594.09.11.023.192.043.254.043.23 0 .332-.176.344-.29q.005-.01.004-.023l.008-4.75c0-.453.27-.937.859-.937.555 0 .887.347.887.937l.101 4.64c0 .013.004.024.004.036.043.2.086.312.203.348.04.011.075.02.117.02.075 0 .145-.02.223-.04.106-.023.235-.055.414-.055q.16 0 .348.036c.367.066.57.28.734.457.117.12.219.23.36.257a1 1 0 0 0 .129.012c.085 0 .168-.016.261-.031a3 3 0 0 1 .656-.067c.543 0 1 .418 1 .91l-.042 3.72c0 .413-.368.85-.52 1.019-.379.43-.621.976-.621 1.543v.254c0 .515-.5.629-.926.629Zm0 0" style="stroke:none;fill-rule:nonzero;fill:url(#a)"/><path d="M7.375.875h.023c.61 0 .727.504.727.785v.008l.078 4.64c0 .02-.012.044-.008.067.032.156.078.414.325.488.058.016.109.028.171.028.094 0 .18-.024.266-.043.102-.024.211-.051.367-.051q.146-.002.317.031c.304.055.468.23.629.402.125.133.257.274.457.313a1 1 0 0 0 .168.016c.101 0 .195-.016.293-.036.14-.027.316-.058.624-.058.43 0 .81.336.81.719l-.044 3.722c0 .239-.156.574-.437.89a2.52 2.52 0 0 0-.641 1.665v.254c0 .113-.027.445-.766.445l-4.351.024c-.324 0-.676-.168-.676-.637 0-.5 0-1.43-.785-1.817-.395-.19-1.457-1.574-1.535-2.695-.04-.57.117-.625.636-.812q.078-.03.16-.059c.25-.094.247-.309.247-.5v-.328l-.008-.461c0-.855.418-1.027.734-1.086a1 1 0 0 1 .157-.012c.195 0 .402.047.55.082.125.032.215.051.301.051.313 0 .504-.23.527-.457q.005-.018.004-.043l.008-4.765c0-.282.14-.77.672-.77m-.004-.34c-.684 0-1.043.55-1.043 1.13l-.012 4.75s-.011.12-.156.12c-.117 0-.48-.133-.848-.133q-.116.001-.226.02c-.852.152-1.04.848-1.04 1.453 0 0 .016.934.005.938-.598.226-1.106.312-1.04 1.25.087 1.25 1.223 2.75 1.743 3.007.516.254.574.805.574 1.45s.469.98 1.047.98h.004l4.355.008c.618 0 1.141-.2 1.141-.79v-.25c0-.519.195-1.023.547-1.421.098-.11.539-.625.539-1.14L13 8.186c0-.609-.555-1.097-1.187-1.097-.54 0-.735.094-.918.094q-.048.002-.094-.008c-.223-.043-.426-.594-1.094-.715a2 2 0 0 0-.383-.04c-.332 0-.504.095-.636.095a.3.3 0 0 1-.063-.008c-.031-.012-.074-.207-.074-.207l-.102-4.64C8.445 1.003 8.06.534 7.371.534m0 0" style="stroke:none;fill-rule:nonzero;fill:#e6b77e;fill-opacity:1"/><g clip-path="url(#b)"><g clip-path="url(#c)"><path d="M5.059 10.566c-.16.11-.766-.261-.95-.882-.214-.72-.02-1.407-.02-1.407s.36.77.513 1.063c.343.644.609 1.12.457 1.226m0 0" style="stroke:none;fill-rule:nonzero;fill:#e6b77e;fill-opacity:1"/></g></g></svg>
